X:324
T: Arme Magd (4-25), S. 36
N: P0586
O: Lothringen
S: PINCK, Louis: Verklingende Weisen Bd 4, Kassel 1939]
R: geistliches, religiöses Lied]
M: 6/8
L: 1/8
K: F
C | FFFAFA | c2cA2
c | B2BG2G | A3z2
C | F2FAFA | c3A2
c | BBBGGG | A3z2
C | F2FAFA | c3A2
c | BBBGGG | A3z2

